lib/svgs/play.svg

<svg xmlns="http://www.w3.org/2000/svg" viewBox="0 0 20 20">
    <path fill="#000" fill-rule="evenodd" d="M10,2 C5.582,2 2,5.582 2,10 C2,14.418 5.582,18 10,18 C14.418,18 18,14.418 18,10 C18,5.582 14.418,2 10,2 L10,2 L10,2 L10,2 L10,2 Z M10,3.2 C13.75,3.2 16.8,6.25 16.8,10 C16.8,13.75 13.75,16.8 10,16.8 C6.25,16.8 3.2,13.75 3.2,10 C3.2,6.25 6.25,3.2 10,3.2 L10,3.2 L10,3.2 L10,3.2 L10,3.2 Z M12.6971,9.501 L8.9471,7.001 C8.7621,6.877 8.5261,6.866 8.3311,6.971 C8.1361,7.075 8.0141,7.279 8.0141,7.5 L8.0141,12.5 C8.0141,12.721 8.1361,12.925 8.3311,13.029 C8.4201,13.076 8.5171,13.1 8.6141,13.1 C8.7301,13.1 8.8461,13.066 8.9471,12.999 L12.6971,10.499 C12.8641,10.388 12.9641,10.201 12.9641,10 C12.9641,9.799 12.8641,9.612 12.6971,9.501"/>
</svg>

<svg xmlns="http://www.w3.org/2000/svg" viewBox="0 0 20 20">
    <path fill="#000" fill-rule="evenodd" d="M10 2a8 8 0 1 0 0 16 8 8 0 0 0 0-16m0 1.2c3.75 0 6.8 3.05 6.8 6.8s-3.05 6.8-6.8 6.8-6.8-3.05-6.8-6.8S6.25 3.2 10 3.2m2.697 6.301l-3.75-2.5a.6.6 0 0 0-.933.499v5a.6.6 0 0 0 .933.499l3.75-2.5a.598.598 0 0 0 0-.998"/>
</svg>
